!!!!SEGMENT: pl-sa--7-a-i-7--002_anonim--polonez-no-3.krn
!!!cenid: 18xx:371
!!!COM: Anonim
!!!COM-rismID: pe30004985
!!!CDT:
!!!CNT:
!!!OTL: Polonez No 3
!!!PDT:
!!!AGN: Secular; Polonaise
!!!YEC: Copyright 2022 Narodowy Instytut Fryderyka Chopina (https://polishscores.org)
!!!YEM: License CC-BY-4.0 (https://creativecommons.org/licenses/by/4.0)
!!!SMS-siglum: PL-SA
!!!SMS-shelfmark: 7/A I 7
!!!SMS-shelfwork: 002 W
!!!SMS-variant:
!!!SMS-altvar:
!!!NIFC-rismSourceID: 1001071076
!!!NIFC-rismChildID: 1001071076
!!!NIFC-islandoraID: none
!!!URL-pdf-islandora:
!!!URL-scan: https://bc.bdsandomierz.pl/dlibra/publication/1234/edition/1195/content @EN{Scan in the Sandomierz Diocese Digital Library} @PL{Skany w portalu Cyfrowa Biblioteka Diecezjalna w Sandomierzu}
!!!IIIF:
!!!ONB-nifc: Str. 6
!!!AIN: 2 empty
!!!key:
**kern	**kern
*part2	*part1
*staff2	*staff1
*Iempty	*Iempty
*	*I"No. 3.
*	*I'cemb
*clefF4	*clefG2
*k[]	*k[]
*C:	*C:
*M3/4	*M3/4
=1	=1
*2\right	*
*tremolo	*
!	!LO:TX:a:t=P:problem=klucze tylko w pierwszym systemie
!LO:TX:a:t=P:problem=mixed beam	!LO:TX:i:a:t=No. 3.
!	!LO:TX:a:t=P:problem=napis przed akoladą
8C/L	(>8.cc\L 8.ee
8c\	.
.	16dd\Jk) 16ff
8C/	8ee\L 8gg
8c\	8ee\J 8gg
8C/	16gg\LL
.	16ee\
8c\J	16ccc\
.	16aa\JJ
*Xtremolo	*
=2	=2
8r	8ff\L 8aa
8C\L	8ee\J 8gg
8E\	4.dd\ 4.ff
8G\J	.
4c\	.
.	8gg#X\
=3	=3
8r	16aa\LL
.	16ggn\
8G\	16ff\
.	16ee\JJ
*tremolo	*
!LO:TX:a:t=P:problem=mixed beam	!
8GG/L	8b\L 8dd
8G\	8b\J 8dd
8GG/	8.ee\L 8.gg
8G\J	.
.	16dd\Jk 16ff
*Xtremolo	*
!!LO:LB:g=original
=4	=4
8r	4dd\ 4ff
8GG/	.
4C/	16cc\LL 16ee
.	16g\
.	16a\
.	16b\JJ
4r	16cc\LL
.	16dd\
.	16ee\
.	16ff\JJ
=5||	=5||
16C\LL	16ee\LL
16G\	16dd\
16E\	16ee\
16G\JJ	16ff\JJ
*rep	*
16C\LL	8ee\L 8gg
16G\	.
16E\	8ee\J 8gg
16G\JJ	.
*Xrep	*
8C\L	16gg\LL
.	16ee\
8F\J	16ccc\
.	16aa\JJ
=6	=6
8r	8ff\L 8aa
8C\L	8ee\J 8gg
8E\	4.ee\ 4.gg
8G\J	.
4c\	.
.	8gg#X\
=7	=7
8r	16aa\LL
.	16ggn\
8G\	16ff\
.	16ee\JJ
*tremolo	*
!LO:TX:a:t=P:problem=mixed beam	!
8GG/L	8b\L 8dd
8G\	8b\J 8dd
8GG/	8.ee\L 8.gg
8G\J	.
.	16dd\Jk 16ff
*Xtremolo	*
!!LO:LB:g=original
=8	=8
4C/	16ee\LL
.	16gg\
.	16ff\
.	16ee\JJ
8r	4f\ 4dd
8GG/	.
4C/	8e\ 8cc
.	8r
=9:|!|:	=9:|!|:
!LO:TX:t=P:problem=mixed beam	!
16GG/LL	8.g/L 8.b
16G\	.
16F#X\	.
16G\JJ	16a/Jk 16cc
*tremolo	*
!LO:TX:a:t=P:problem=mixed beam	!
8GG/L	8b/L 8dd/
8G\	8b/J 8dd/
8GG/	8.b\L 8.dd
8G\J	.
.	16dd\Jk 16ff
*Xtremolo	*
=10	=10
8r	8dd\L 8ff
8C\L	8cc\J 8ee
8E\	4.ee\ 4.gg
8G\J	.
4c\	.
.	8cc\ 8ee
=11	=11
8r	16aa\LL
.	16gg\
8G\	16ff\
.	16ee\JJ
*tremolo	*
!LO:TX:a:t=P:problem=mixed beam	!
8GG/L	8b\L 8dd
8G\	8b\ 8dd
8GG/	8.ee\ 8.gg
8G\J	.
.	16dd\Jk 16ff
*Xtremolo	*
=12	=12
8r	4dd\ 4ff
8GG/	.
4C/	16cc\LL 16ee
.	16g\
.	16a\
.	16b\JJ
!LO:TX:b:i:t=al Segno.	!
4r	16cc\LL
.	16dd\
.	16ee\
.	16ff\JJ
==	==
*-	*-
!!!system-decoration: [(s1,s2)]
!!!RDF**kern: > = above
!!!RDF**kern: < = below
!!!EED: Mateusz Mrugas
!!!EEV: 2020-11-28
!!!ENC: Marta Chmielewska
!!!END: 2020-06-15
